X: 42252
T: We'll Aye Gang Back To Yon Town
R: reel
M: 4/4
K: Edorian
|:D|BEED EF B2|ABAF D2 D2|BEED EG Be|dBAF E2E:|
A|Beef gfed|Adde fedA|Beef gfed|BdAF E2 EF|
Eeef gfed|Adde fedA|gefd ecdB|cAFB E2 E|

